X:266
T:Morning Hymn TS.266
M:2/4
L:1/8
Q:1/2=60
S:Thomas Sands’ MS,1810,Lincolnshire
C:”A Greek Air” written next to title
N:bar 9 in bass part all crotchets in MS
R:air
O:England;Lincolnshire
Z:vmp.Ruairidh Greig, 2011
K:C
[V:1][cD]>[dF]|[e2G2][e2G2]|[e2G2][c2E2]|[d2F2][B2D2]|[c2E2][cE][dF]|
[V:2]C,2|C,2C,2|C,2C,2|G,,2G,,2|C,2C,2|
[V:1][e2G2][e2G2]|[e2G2][c2E2]|[d2F2][B2D2]|[c2E2]z2|]
[V:2]C,2C,2|C,2C,2|G,,2G,,2|C,2z2|]
[V:1][c2E2C2]BA| GFE2|FG/F/ [EC][DB,]|[E2C2]z2|
[V:2][A,2A,,2][G,G,,][F,F,,]|E,D,[C,2C,,2]|D,E,/F,/ G,G,,|C,E,/G,/ CB,|
[V:1]C2DE|[FG,][AF][GE][FD]|EDCB,|C2|]
[V:2]A,G, F,E,|D,2E,F,|G,2[E,G,,]D,|[G,2E,2C,2]|]

